souls/img/arrow-down.svg

<svg width="20" height="16" viewBox="0 0 20 16" fill="none" xmlns="http://www.w3.org/2000/svg">
<path d="M19.77 1.07391C19.6428 0.86066 19.4434 0.699971 19.208 0.620911C18.572 0.38391 17.684 0.490915 17.325 0.968914C15.089 3.94091 13.027 6.97391 10.869 9.97191C10.606 10.3369 10.343 10.6999 10.076 11.0619C7.537 7.73291 5.186 4.33391 2.578 1.03191C1.915 0.193914 -0.172002 0.571913 0.0109983 1.52191C0.583998 4.48291 1.507 5.03791 4.553 10.8279C4.83 11.3529 6.337 13.4509 6.83 13.8909C7.262 14.2769 7.692 14.6829 8.183 15.0329C8.963 15.5899 10.153 15.6509 11.053 15.1929C11.677 14.8769 12.729 13.4079 13.128 12.9479C14.657 11.1809 15.941 9.09091 16.58 7.99691C17.853 5.82691 18.724 4.03491 19.934 1.84691C20.072 1.59591 19.983 1.30691 19.769 1.07391L19.77 1.07391Z" fill="white"/>
</svg>

<svg xmlns="http://www.w3.org/2000/svg" width="20" height="16" fill="none"><path fill="#fff" d="M19.77 1.074a1.04 1.04 0 0 0-.562-.453c-.636-.237-1.524-.13-1.883.348-2.236 2.972-4.298 6.005-6.456 9.003q-.393.547-.793 1.09c-2.539-3.33-4.89-6.728-7.498-10.03-.663-.838-2.75-.46-2.567.49.573 2.96 1.496 3.516 4.542 9.306.277.525 1.784 2.623 2.277 3.063.432.386.862.792 1.353 1.142.78.557 1.97.618 2.87.16.624-.316 1.676-1.785 2.075-2.245 1.529-1.767 2.813-3.857 3.452-4.951 1.273-2.17 2.144-3.962 3.354-6.15.138-.251.049-.54-.165-.773z"/></svg>
